X:1936
T:Bourrée à Bergheaud
M:3/8
L:1/16
K:C
e4a2|g2f4|dfe2g2|fededc|\
e4a2|g2f4|dfe2d2|1 c6:|2 c4c2||
ABd2e2|f4e2|d2dedc|Bcdedc|\
Bcd2e2|f4e2|d2dedB|1 c4c2:|2 c6||


